X:1
T:Nebbie
T:Nebbie
T:Otorino Respighi
T:Ada Negri
T:1906
T:1906
C:Otorino Respighi
Z:Ada Negri
Z:1906
%%score 1 { ( 2 4 ) | ( 3 5 ) }
L:1/8
Q:1/4=100
M:4/2
K:G
V:1 bass nm="Baritone" snm="Bar."
V:2 treble nm="Piano"
V:4 treble 
V:3 bass 
V:5 bass 
V:1
 z16 | z4 B,,2 B,,2 z2 z ^C, C,3 C, | ^D,4 E,3 E, F,F,F,F, G,3 G, | A,3 A, B,4 ^C3 C ^D3 D | %4
 E8 E,4 z4 | z16 | D4 C3 C B,4 ^A,3 A, | D4 C3 C B,3 B, ^A,3 A, | C4 B,3 B, A,3 A, G,3 G, | %9
 F,4 E,4 D,4 C,4 | z4 z4 B,,4 ^C,3 C, | ^D,3 D, E,3 E, F,4 G,4 | A,4 B,3 B, ^C4 ^D4 | E8 E,6 z2 | %14
 A,4 G,3 G, F,2 F,2 E,3 E, | D,4 C,4 z8 | z8 | E6 E2 E,4 E,4 | E8 E,4 E,4 | %19
 z E,E,E, E,3 E, E,4 E,3 E, | E,E,E,E, B,,3 B,, | B,,8 B,,4 z4 | D4 C3 C B,4 ^A,4 | %23
 D4 C3 C B,3 B, ^A,3 A, | C4 B,3 B, A,3 A, G,3 G, | F,4 E,4 D,4 C,4 | E,16 | E,16 |] %28
V:2
 [EGB]4 [EGB]4 [EGB]4 [EGB]4 | [EGB]4 [EGB]4 [EGB^c]4 [EGBc]4 | [B^d]4 [Be]4 [Bef]4 [Beg]4 | %3
 [ABea]4 [Begb]4 [^ceg^c']4 [^dgb^d']4 | [egbe']4 [=degd']4 [=ceg=c']4 [Begb]4 | %5
 [ABea]4 [GBeg]4 [FGBf]4 [EGBe]4 | [DEGd]4 [CEGc]4 [B,EGB]4 [^A,EG^A]4 | %7
 [DEGd]4 [CEGc]4 [B,EGB]4 [^A,EG^A]4 | [CEGc]4 [B,EGB]4 [A,B,EA]4 [G,B,EG]4 | %9
[K:bass] [F,G,B,F]4 [E,G,B,E]4 [D,E,G,D]4 [C,E,G,C]4 | [B,,B,]12 [^C,F,^A,^C]4 | %11
[K:treble] [^D,A,B,^D]4 [E,G,B,E]4 [F,B,EF]4 [G,B,EG]4 | [A,B,EA]4 [B,EGB]4 [^CGB^c]4 [^DGB^d]4 | %13
 [EG_Be]4 [DGBd]4 [CEGc]4 [_B,EG_B]4 | [A,B,EA]4 [G,B,EG]4 [F,G,B,F]4 [E,G,B,E]4 | %15
[K:bass] [D,E,G,D]4 [C,E,G,C]4 [B,,E,G,B,]4 [A,,B,,E,A,]4 | [B,,E,G,]4 [G,,B,,F,]4 | %17
 [^A,,E,^A,]8[K:treble] [egbe']8 |[K:bass] [^A,,E,^A,]8[K:treble] [egbe']8 | [G,E]16- | E8 | %21
 [ABea]4 [GBeg]4 [FGBf]4 [EGBe]4 | [DEGd]4 [CEGc]4 [B,EGB]4 [^A,EG^A]4 | %23
 [DEGd]4 [CEGc]4 [B,EGB]4 [^A,EG^A]4 | [CEGc]4 [B,EGB]4 [A,B,EA]4 [G,B,EG]4 | %25
[K:bass] [F,G,B,F]4 [E,G,B,E]4 [D,E,G,D]4 [C,E,G,C]4 | [E,G,B,]8 [C,E,F,C]8 | [E,G,B,E]16 |] %28
V:3
 z8 [E,,,B,,,]8- | [E,,,B,,,]4 z4 z8 |[K:treble] [EG]4 [EG]4 [EG]4 [EG]4 | %3
 [EG]4 [EG]4 [EGB]4 [EGB]4 | [EGB]4 [=DEGB]4 [=CEG]4 [B,EG]4 | %5
[K:bass] [A,B,E]4 [G,B,E]4 [F,G,B,]4 [E,G,B,]4 | [D,E,G,]4 [C,E,G,]4 [B,,E,G,]4 [^A,,E,G,]4 | %7
 [D,E,G,]4 [C,E,G,]4 [B,,E,G,]4 [^A,,E,G,]4 | [C,E,G,]4 [B,,E,G,]4 [A,,B,,E,]4 [G,,B,,E,]4 | %9
 [F,,G,,B,,]4 [E,,G,,B,,]4 [D,,E,,G,,]4 [C,,E,,G,,]4 | %10
 [B,,,E,,G,,]4 [A,,,B,,,E,,A,,]4 [G,,,B,,,E,,G,,]4 [F,,,F,,]4 | [=F,,,=F,,]4 [E,,,E,,]12- | %12
 [E,,,E,,]2- [E,,,E,,]>[E,,,E,,] [E,,E,]4- [E,,E,]2- [E,,E,]>[E,,E,] [E,E]4 | %13
 [E,G,_B,]4 [D,G,B,]4 [C,E,G,]4 [_B,,E,G,]4 | [A,,B,,E,]4 [G,,B,,E,]4 [F,,G,,B,,]4 [E,,G,,B,,]4 | %15
 [D,,E,,G,,]4 [C,,E,,G,,]4 [B,,,E,,G,,]4 [A,,,B,,,E,,]4 | [G,,,B,,,G,,]4 [F,,,B,,,F,,]4 | %17
 [E,,,^A,,,E,,]8[K:treble] [E,B,G]8 |[K:bass] [E,,,^A,,,E,,]8[K:treble] [E,B,G]8 |[K:bass] E,16 | %20
 E,4 x4 | [E,,B,,E,]4 [G,B,E]4 [F,G,B,]4 [E,G,B,]4 | [D,E,G,]4 [C,E,G,]4 [B,,E,G,]4 [^A,,E,G,]4 | %23
 [D,E,G,]4 [C,E,G,]4 [B,,E,G,]4 [^A,,E,G,]4 | [C,E,G,]4 [B,,E,G,]4 [A,,B,,E,]4 [G,,B,,E,]4 | %25
 [F,,G,,B,,]4 [E,,G,,B,,]4 [D,,E,,G,,]4 [C,,E,,G,,]4 | [B,,,E,,]8 [A,,,E,,]8 | [E,,,B,,,E,,]16 |] %28
V:4
 x16 | x16 | x16 | x16 | x16 | x16 | x16 | x16 | x16 |[K:bass] x16 | [G,B,]4 [E,A,]4 [E,G,]4 x4 | %11
[K:treble] x16 | x16 | x16 | x16 |[K:bass] x16 | x8 | x8[K:treble] x8 |[K:bass] x8[K:treble] x8 | %19
 x16 | [G,B,]4 A,4 | x16 | x16 | x16 | x16 |[K:bass] x16 | x16 | x16 |] %28
V:5
 x16 | x16 |[K:treble] x16 | x16 | x16 |[K:bass] x16 | x16 | x16 | x16 | x16 | x16 | x16 | x16 | %13
 x16 | x16 | x16 | x8 | x8[K:treble] x8 |[K:bass] x8[K:treble] x8 |[K:bass] D,4 C,4 B,,4 A,,4 | %20
 G,,4 [F,,B,,]4 | x16 | x16 | x16 | x16 | x16 | x16 | x16 |] %28

